._scraped/app.urodapter.com/img/logo_white.svg

<svg fill="none" viewBox="0 0 267 48" xmlns="http://www.w3.org/2000/svg"><path d="m23.3053 24.3137c0 1.6989-.4024 3.2181-1.2002 4.554s-1.8956 2.3862-3.2829 3.1511c-1.3908.7649-2.9723 1.1455-4.7444 1.1455s-3.2335-.3806-4.58904-1.1455-2.44279-1.8152-3.25823-3.1511-1.22493-2.8551-1.22493-4.554v-24.3137h-5.0056v24.4688c0 2.7422.624818 5.1391 1.87798 7.1834 1.25317 2.0479 2.937 3.627 5.05856 4.7373 2.12155 1.1103 4.50076 1.6672 7.14476 1.6672s5.0304-.5569 7.1696-1.6672c2.1356-1.1103 3.8407-2.6894 5.1079-4.7373 1.2673-2.0478 1.9027-4.4412 1.9027-7.1834v-24.4688h-4.9526v24.3137zm20.4002-6.1683c-.9567.8318-1.7086 1.8258-2.2522 2.9819l-.3777-5.0404h-4.3278v21.5539h4.7973v-9.8411c0-1.3888.3565-2.6894 1.0696-3.9054.7131-1.2161 1.6874-2.1889 2.9193-2.915 1.232-.7261 2.6687-1.0398 4.3032-.9376l.2612-4.7901c-.8684 0-1.8851.2538-3.05.7543-1.1649.504-2.2769 1.216-3.3359 2.136zm28.0109-1.4311c-1.7721-1.008-3.8407-1.5121-6.2058-1.5121-2.3652 0-4.3455.5041-6.1529 1.5121-1.8074 1.0081-3.2265 2.3757-4.2502 4.1134s-1.5391 3.6799-1.5391 5.83c0 2.3263.5119 4.346 1.5391 6.066 1.0237 1.7166 2.4322 3.056 4.2255 4.0077 1.7897.9552 3.8336 1.431 6.1281 1.431 2.2946 0 4.4408-.504 6.2306-1.5086 1.7897-1.008 3.1735-2.3862 4.1442-4.138.9743-1.7518 1.4615-3.7045 1.4615-5.8581 0-2.1537-.4872-4.0958-1.4615-5.83-.9743-1.7341-2.3474-3.1053-4.1195-4.1134zm-.2083 13.7677c-.593 1.1279-1.4155 2.0232-2.4746 2.6823-1.0625.6592-2.2698.987-3.6253.987-1.285 0-2.4605-.3314-3.5195-.987-1.059-.6591-1.9027-1.5544-2.5275-2.6823s-.939-2.3862-.939-3.775c0-1.3887.3036-2.5942.9143-3.7221.6072-1.1279 1.4403-2.0373 2.5028-2.7352 1.059-.6944 2.2522-1.0398 3.5724-1.0398s2.5628.3383 3.6254 1.0151c1.059.6767 1.885 1.5791 2.4745 2.707.5896 1.1279.8861 2.3863.8861 3.775 0 1.3888-.2965 2.6471-.8861 3.775zm39.4799-24.23615c-1.599-1.87516-3.71-3.38376-6.336-4.5293-2.627-1.145541-5.7966-1.71655-9.5173-1.71655h-10.2724v37.6408h12.0974c2.5028 0 4.8753-.4265 7.1163-1.276 2.242-.8494 4.233-2.0725 5.97-3.6692 1.736-1.5968 3.102-3.5213 4.091-5.7806.992-2.2559 1.486-4.8078 1.486-7.6523 0-2.2558-.374-4.5222-1.122-6.7957-.749-2.2734-1.921-4.34598-3.52-6.22115zm-1.617 18.56135c-.73 1.7165-1.747 3.1687-3.05 4.346-1.302 1.1808-2.834 2.0831-4.589 2.707-1.7541.6239-3.6744.9376-5.7607.9376h-6.0505v-27.9548h6.52c1.8427 0 3.5972.30313 5.2672.90939 1.669.60978 3.163 1.50154 4.483 2.68233s2.361 2.64708 3.127 4.39888c.763 1.7518 1.148 3.7926 1.148 6.1154 0 2.1889-.364 4.1381-1.095 5.8582zm30.599-5.2836c-.72-1.1174-1.712-2.1008-2.987-2.9432-1.39-.9199-3.096-1.3782-5.108-1.3782s-3.865.4688-5.552 1.4064c-1.688.9376-3.033 2.284-4.042 4.0358-1.01 1.7554-1.511 3.8279-1.511 6.2212s.476 4.487 1.433 6.1683c.957 1.6849 2.259 2.9608 3.911 3.8279s3.484 1.3006 5.5 1.3006c1.253 0 2.379-.1833 3.389-.5463 1.01-.3666 1.903-.8248 2.686-1.3782.784-.5534 1.409-1.1032 1.878-1.639.149-.1727.276-.3278.392-.4793v3.5247h4.847v-21.5538h-4.483l-.353 3.4366zm-.014 9.1079c-.244 1.1456-.689 2.1254-1.331 2.9432-.643.8177-1.451 1.4487-2.425 1.8998-.975.4512-2.069.6768-3.283.6768-1.285 0-2.485-.3314-3.597-.987-1.112-.6591-1.998-1.5614-2.658-2.707-.661-1.1455-.992-2.4109-.992-3.7996 0-1.491.321-2.7916.963-3.9055.643-1.1103 1.504-1.9809 2.581-2.6047 1.076-.6239 2.259-.9376 3.547-.9376 1.183 0 2.26.2185 3.234.6485.974.4336 1.807 1.0433 2.503 1.8223.695.7825 1.182 1.6919 1.461 2.7352v4.2156zm31.424-11.9735c-1.617-.9729-3.431-1.4593-5.45-1.4593s-3.77.4336-5.369 1.3006c-1.455.7896-2.676 1.7659-3.672 2.9291l-.448-3.6587h-4.173v32.2268h4.798v-13.6091c.805 1.0786 1.874 1.9527 3.205 2.6224 1.511.7649 3.085 1.1456 4.72 1.1456 2.224 0 4.215-.4618 5.969-1.3782 1.754-.9199 3.135-2.2276 4.144-3.9301 1.01-1.6989 1.511-3.7115 1.511-6.0379 0-2.3263-.469-4.353-1.408-6.0907-.939-1.7342-2.217-3.0877-3.834-4.0605zm-.702 14.032c-.696 1.1279-1.624 2.0126-2.789 2.6541s-2.443.9623-3.834.9623c-1.147 0-2.217-.2432-3.205-.7297-.988-.4864-1.818-1.1631-2.475-2.0302-.66-.8671-1.076-1.8576-1.253-2.9679v-3.5917c.279-1.1103.749-2.0901 1.409-2.9396s1.493-1.5192 2.503-2.0056c1.009-.4864 2.135-.7296 3.388-.7296 1.356 0 2.581.3313 3.675.9869 1.094.6591 1.973 1.5544 2.634 2.6823.66 1.128.988 2.4215.988 3.8773 0 1.4557-.349 2.6999-1.041 3.8278zm18.575-24.07757h-4.851v9.58027h-3.96v3.7997h3.96v17.6484h4.851v-17.6484h5.944v-3.7997h-5.944zm28.332 11.08887c-1.878-1.6672-4.243-2.4991-7.092-2.4991-2.224 0-4.243.5217-6.05 1.5615-1.808 1.0398-3.252 2.4285-4.328 4.1662-1.077 1.7342-1.617 3.6623-1.617 5.7806 0 2.2206.476 4.191 1.433 5.9075.957 1.7201 2.319 3.0736 4.091 4.0605 1.773.9869 3.894 1.4839 6.362 1.4839 1.284 0 2.598-.2255 3.936-.6767 1.337-.4512 2.545-1.0398 3.621-1.7694l-2.241-3.5918c-.766.557-1.592 1.0081-2.478 1.3535-.886.349-1.797.5217-2.736.5217-1.391 0-2.633-.3207-3.728-.9622-1.027-.6028-1.846-1.424-2.46-2.4568l17.089-6.0026c-.66-2.915-1.931-5.2061-3.806-6.8733zm-14.265 9.9433c-.049-.3842-.074-.7825-.074-1.1984 0-1.424.296-2.6894.886-3.8032.589-1.1103 1.408-1.9845 2.45-2.6295 1.041-.6415 2.224-.9622 3.544-.9622 1.564 0 2.834.4265 3.805 1.2759.9.786 1.557 1.6989 1.981 2.7352l-12.596 4.5822zm30.203-9.5027c-.957.8318-1.709 1.8258-2.252 2.9819l-.378-5.0404h-4.328v21.5538h4.798v-9.841c0-1.3888.356-2.6894 1.069-3.9055.713-1.216 1.688-2.1888 2.92-2.9149 1.232-.7297 2.668-1.0398 4.303-.9376l.261-4.7901c-.868 0-1.885.2537-3.05.7543-1.165.504-2.277 1.216-3.336 2.1359zm24.912-6.7429c.607-.7648.914-1.6143.914-2.55189 0-1.14554-.35-2.0232-1.042-2.62946-.695-.60625-1.669-.90938-2.919-.90938h-4.381v11.08883h2.764v-3.8525h.96l1.543 3.8525h3.128l-1.966-4.2191c.398-.1868.737-.4441 1.002-.7754zm-2.348-1.40634c-.226.27844-.653.41594-1.278.41594h-1.041v-3.02073h1.147c.487 0 .861.14804 1.119.44059.261.29608.392.6697.392 1.12087 0 .41592-.113.76487-.339 1.04333zm8.447-4.58217c-.992-1.63196-2.319-2.91497-3.988-3.85255-1.67-.937585-3.527-1.406376-5.578-1.406376s-3.865.468791-5.553 1.406376c-1.687.93758-3.025 2.22059-4.013 3.85255-.992 1.63195-1.487 3.4895-1.487 5.56911 0 2.0796.495 3.9477 1.487 5.5973.988 1.6496 2.329 2.9431 4.013 3.8807 1.688.9376 3.537 1.4064 5.553 1.4064s3.911-.4758 5.578-1.431c1.669-.9552 2.996-2.2488 3.988-3.8808.989-1.6319 1.487-3.4895 1.487-5.5691 0-2.07959-.498-3.93713-1.487-5.56909zm-2.555 9.76001c-.713 1.2337-1.688 2.1959-2.92 2.8903-1.235.6944-2.615 1.0398-4.144 1.0398-1.528 0-2.859-.3454-4.091-1.0398-1.236-.6944-2.207-1.6566-2.92-2.8903-.713-1.2301-1.069-2.6295-1.069-4.1909 0-1.56148.356-2.95728 1.069-4.19094.713-1.23013 1.688-2.20296 2.92-2.91496s2.598-1.06448 4.091-1.06448 2.912.356 4.144 1.06448c1.232.712 2.207 1.68483 2.92 2.91496.713 1.23014 1.069 2.62946 1.069 4.19094 0 1.5614-.356 2.9608-1.069 4.1909z" fill="#fff"/></svg>

<svg viewBox="0 0 267 48" fill="none" xmlns="http://www.w3.org/2000/svg">
<path d="M23.3053 24.3137C23.3053 26.0126 22.9029 27.5318 22.1051 28.8677C21.3073 30.2036 20.2095 31.2539 18.8222 32.0188C17.4314 32.7837 15.8499 33.1643 14.0778 33.1643C12.3057 33.1643 10.8443 32.7837 9.48876 32.0188C8.13322 31.2539 7.04597 30.2036 6.23053 28.8677C5.41509 27.5318 5.0056 26.0126 5.0056 24.3137V0H0V24.4688C0 27.211 0.624818 29.6079 1.87798 31.6522C3.13115 33.7001 4.81498 35.2792 6.93654 36.3895C9.05809 37.4998 11.4373 38.0567 14.0813 38.0567C16.7253 38.0567 19.1117 37.4998 21.2509 36.3895C23.3865 35.2792 25.0916 33.7001 26.3588 31.6522C27.6261 29.6044 28.2615 27.211 28.2615 24.4688V0H23.3089V24.3137H23.3053ZM43.7055 18.1454C42.7488 18.9772 41.9969 19.9712 41.4533 21.1273L41.0756 16.0869H36.7478V37.6408H41.5451V27.7997C41.5451 26.4109 41.9016 25.1103 42.6147 23.8943C43.3278 22.6782 44.3021 21.7054 45.534 20.9793C46.766 20.2532 48.2027 19.9395 49.8372 20.0417L50.0984 15.2516C49.23 15.2516 48.2133 15.5054 47.0484 16.0059C45.8835 16.5099 44.7715 17.2219 43.7125 18.1419L43.7055 18.1454ZM71.7164 16.7143C69.9443 15.7063 67.8757 15.2022 65.5106 15.2022C63.1454 15.2022 61.1651 15.7063 59.3577 16.7143C57.5503 17.7224 56.1312 19.09 55.1075 20.8277C54.0838 22.5654 53.5684 24.5076 53.5684 26.6577C53.5684 28.984 54.0803 31.0037 55.1075 32.7237C56.1312 34.4403 57.5397 35.7797 59.333 36.7314C61.1227 37.6866 63.1666 38.1624 65.4611 38.1624C67.7557 38.1624 69.9019 37.6584 71.6917 36.6538C73.4814 35.6458 74.8652 34.2676 75.8359 32.5158C76.8102 30.764 77.2974 28.8113 77.2974 26.6577C77.2974 24.504 76.8102 22.5619 75.8359 20.8277C74.8616 19.0936 73.4885 17.7224 71.7164 16.7143ZM71.5081 30.482C70.9151 31.6099 70.0926 32.5052 69.0335 33.1643C67.971 33.8235 66.7637 34.1513 65.4082 34.1513C64.1232 34.1513 62.9477 33.8199 61.8887 33.1643C60.8297 32.5052 59.986 31.6099 59.3612 30.482C58.7364 29.3541 58.4222 28.0958 58.4222 26.707C58.4222 25.3183 58.7258 24.1128 59.3365 22.9849C59.9437 21.857 60.7768 20.9476 61.8393 20.2497C62.8983 19.5553 64.0915 19.2099 65.4117 19.2099C66.7319 19.2099 67.9745 19.5482 69.0371 20.225C70.0961 20.9017 70.9221 21.8041 71.5116 22.932C72.1012 24.0599 72.3977 25.3183 72.3977 26.707C72.3977 28.0958 72.1012 29.3541 71.5116 30.482H71.5081ZM110.988 6.24585C109.389 4.37069 107.278 2.86209 104.652 1.71655C102.025 0.571009 98.8554 0 95.1347 0H84.8623V37.6408H96.9597C99.4625 37.6408 101.835 37.2143 104.076 36.3648C106.318 35.5154 108.309 34.2923 110.046 32.6956C111.782 31.0988 113.148 29.1743 114.137 26.915C115.129 24.6591 115.623 22.1072 115.623 19.2627C115.623 17.0069 115.249 14.7405 114.501 12.467C113.752 10.1936 112.58 8.12102 110.981 6.24585H110.988ZM109.371 24.8072C108.641 26.5237 107.624 27.9759 106.321 29.1532C105.019 30.334 103.487 31.2363 101.732 31.8602C99.9779 32.4841 98.0576 32.7978 95.9713 32.7978H89.9208V4.843H96.4408C98.2835 4.843 100.038 5.14613 101.708 5.75239C103.377 6.36217 104.871 7.25393 106.191 8.43472C107.511 9.61551 108.552 11.0818 109.318 12.8336C110.081 14.5854 110.466 16.6262 110.466 18.949C110.466 21.1379 110.102 23.0871 109.371 24.8072ZM139.97 19.5236C139.25 18.4062 138.258 17.4228 136.983 16.5804C135.593 15.6605 133.887 15.2022 131.875 15.2022C129.863 15.2022 128.01 15.671 126.323 16.6086C124.635 17.5462 123.29 18.8926 122.281 20.6444C121.271 22.3998 120.77 24.4723 120.77 26.8656C120.77 29.2589 121.246 31.3526 122.203 33.0339C123.16 34.7188 124.462 35.9947 126.114 36.8618C127.766 37.7289 129.598 38.1624 131.614 38.1624C132.867 38.1624 133.993 37.9791 135.003 37.6161C136.013 37.2495 136.906 36.7913 137.689 36.2379C138.473 35.6845 139.098 35.1347 139.567 34.5989C139.716 34.4262 139.843 34.2711 139.959 34.1196V37.6443H144.806V16.0905H140.323L139.97 19.5271V19.5236ZM139.956 28.6315C139.712 29.7771 139.267 30.7569 138.625 31.5747C137.982 32.3924 137.174 33.0234 136.2 33.4745C135.225 33.9257 134.131 34.1513 132.917 34.1513C131.632 34.1513 130.432 33.8199 129.32 33.1643C128.208 32.5052 127.322 31.6029 126.662 30.4573C126.001 29.3118 125.67 28.0464 125.67 26.6577C125.67 25.1667 125.991 23.8661 126.633 22.7522C127.276 21.6419 128.137 20.7713 129.214 20.1475C130.29 19.5236 131.473 19.2099 132.761 19.2099C133.944 19.2099 135.021 19.4284 135.995 19.8584C136.969 20.292 137.802 20.9017 138.498 21.6807C139.193 22.4632 139.68 23.3726 139.959 24.4159V28.6315H139.956ZM171.38 16.658C169.763 15.6851 167.949 15.1987 165.93 15.1987C163.911 15.1987 162.16 15.6323 160.561 16.4993C159.106 17.2889 157.885 18.2652 156.889 19.4284L156.441 15.7697H152.268V47.9965H157.066V34.3874C157.871 35.466 158.94 36.3401 160.271 37.0098C161.782 37.7747 163.356 38.1554 164.991 38.1554C167.215 38.1554 169.206 37.6936 170.96 36.7772C172.714 35.8573 174.095 34.5496 175.104 32.8471C176.114 31.1482 176.615 29.1356 176.615 26.8092C176.615 24.4829 176.146 22.4562 175.207 20.7185C174.268 18.9843 172.99 17.6308 171.373 16.658H171.38ZM170.678 30.69C169.982 31.8179 169.054 32.7026 167.889 33.3441C166.724 33.9856 165.446 34.3064 164.055 34.3064C162.908 34.3064 161.838 34.0632 160.85 33.5767C159.862 33.0903 159.032 32.4136 158.375 31.5465C157.715 30.6794 157.299 29.6889 157.122 28.5786V24.9869C157.401 23.8766 157.871 22.8968 158.531 22.0473C159.191 21.1978 160.024 20.5281 161.034 20.0417C162.043 19.5553 163.169 19.3121 164.422 19.3121C165.778 19.3121 167.003 19.6434 168.097 20.299C169.191 20.9581 170.07 21.8534 170.731 22.9813C171.391 24.1093 171.719 25.4028 171.719 26.8586C171.719 28.3143 171.37 29.5585 170.678 30.6864V30.69ZM189.253 6.61243H184.402V16.1927H180.442V19.9924H184.402V37.6408H189.253V19.9924H195.197V16.1927H189.253V6.61243ZM217.585 17.7013C215.707 16.0341 213.342 15.2022 210.493 15.2022C208.269 15.2022 206.25 15.7239 204.443 16.7637C202.635 17.8035 201.191 19.1922 200.115 20.9299C199.038 22.6641 198.498 24.5922 198.498 26.7105C198.498 28.9311 198.974 30.9015 199.931 32.618C200.888 34.3381 202.25 35.6916 204.022 36.6785C205.795 37.6654 207.916 38.1624 210.384 38.1624C211.668 38.1624 212.982 37.9369 214.32 37.4857C215.657 37.0345 216.865 36.4459 217.941 35.7163L215.7 32.1245C214.934 32.6815 214.108 33.1326 213.222 33.478C212.336 33.827 211.425 33.9997 210.486 33.9997C209.095 33.9997 207.853 33.679 206.758 33.0375C205.731 32.4347 204.912 31.6135 204.298 30.5807L221.387 24.5781C220.727 21.6631 219.456 19.372 217.581 17.7048L217.585 17.7013ZM203.32 27.6446C203.271 27.2604 203.246 26.8621 203.246 26.4462C203.246 25.0222 203.542 23.7568 204.132 22.643C204.721 21.5327 205.54 20.6585 206.582 20.0135C207.623 19.372 208.806 19.0513 210.126 19.0513C211.69 19.0513 212.96 19.4778 213.931 20.3272C214.831 21.1132 215.488 22.0261 215.912 23.0624L203.316 27.6446H203.32ZM233.523 18.1419C232.566 18.9737 231.814 19.9677 231.271 21.1238L230.893 16.0834H226.565V37.6372H231.363V27.7962C231.363 26.4074 231.719 25.1068 232.432 23.8907C233.145 22.6747 234.12 21.7019 235.352 20.9758C236.584 20.2461 238.02 19.936 239.655 20.0382L239.916 15.2481C239.048 15.2481 238.031 15.5018 236.866 16.0024C235.701 16.5064 234.589 17.2184 233.53 18.1383L233.523 18.1419ZM258.435 11.399C259.042 10.6342 259.349 9.7847 259.349 8.84711C259.349 7.70157 258.999 6.82391 258.307 6.21765C257.612 5.6114 256.638 5.30827 255.388 5.30827H251.007V16.3971H253.771V12.5446H254.731L256.274 16.3971H259.402L257.436 12.178C257.834 11.9912 258.173 11.7339 258.438 11.4026L258.435 11.399ZM256.087 9.99266C255.861 10.2711 255.434 10.4086 254.809 10.4086H253.768V7.38787H254.915C255.402 7.38787 255.776 7.53591 256.034 7.82846C256.295 8.12454 256.426 8.49816 256.426 8.94933C256.426 9.36525 256.313 9.7142 256.087 9.99266ZM264.534 5.41049C263.542 3.77853 262.215 2.49552 260.546 1.55794C258.876 0.620355 257.019 0.151564 254.968 0.151564C252.917 0.151564 251.103 0.620355 249.415 1.55794C247.728 2.49552 246.39 3.77853 245.402 5.41049C244.41 7.04244 243.915 8.89999 243.915 10.9796C243.915 13.0592 244.41 14.9273 245.402 16.5769C246.39 18.2265 247.731 19.52 249.415 20.4576C251.103 21.3952 252.952 21.864 254.968 21.864C256.984 21.864 258.879 21.3882 260.546 20.433C262.215 19.4778 263.542 18.1842 264.534 16.5522C265.523 14.9203 266.021 13.0627 266.021 10.9831C266.021 8.90351 265.523 7.04597 264.534 5.41401V5.41049ZM261.979 15.1705C261.266 16.4042 260.291 17.3664 259.059 18.0608C257.824 18.7552 256.444 19.1006 254.915 19.1006C253.387 19.1006 252.056 18.7552 250.824 18.0608C249.588 17.3664 248.617 16.4042 247.904 15.1705C247.191 13.9404 246.835 12.541 246.835 10.9796C246.835 9.41812 247.191 8.02232 247.904 6.78866C248.617 5.55853 249.592 4.5857 250.824 3.8737C252.056 3.1617 253.422 2.80922 254.915 2.80922C256.408 2.80922 257.827 3.16522 259.059 3.8737C260.291 4.5857 261.266 5.55853 261.979 6.78866C262.692 8.0188 263.048 9.41812 263.048 10.9796C263.048 12.541 262.692 13.9404 261.979 15.1705Z" fill="white"/>
</svg>
